X: 349
T: Sirba pentru Concert (Concert Sirba)
R: sirba
Q: 1/4-138
B: German Goldenshteyn "Shpilt klezmorimlach klingen zoln di gesalach" New York 2003 v.3 #49
Z: 2013 John Chambers <jc:trillian.mit.edu>
M: 2/4
L: 1/8
K: G
(3d/e/f/ |:\
gz Bd | (3(dcB) (TA>G) | B>G (3(dcB) | A>G d2 |\
gz Bd | (3(dcB) (TA>G) | B>G (3(dcB) | (TA>G) Gz :|
|: (3(DEF) (3(GAB) | (3(dcB) (TA>G) | B>G (3(dcB) | (3(Bc^c) d2 |\
(3(GDG) (3(BGB) | (3(dcB) (TA>G) | (3(BGB) (3(dc)B | (TA>G) Gz :|
|: (B>G) (3(dcB) | (TA>G) dc | (3(BGB) (3(dcB) | (TA>G) Gz :|\
{^ce}d4- | d4 | {^c}d2 {c}d2 | {^c}d2 {c}d2 |
|:[K:Gdor] (3(^cde) (3(dcB) | (3(d^cB) (3(dcB) | (3(^cde) (3(dcB) | (3(BAG) d2 |\
(3(^cde) (3(dcB) | (3(d^cB) (3(dcB) | (3(^cde) (3(dcB) | (3(BAG) Gz :|
(3(de)e (3(ed)d | (3(d^c)c (3(cd)d | (3(de)e (3(ed)d | (3(d^c)c (3(cd)d |\
(3(de)e (3(ed)d | (3(d^c)c (3(cd)d | z(e/d/ ^c/d/e/^f/) |]
